X:6
T:LÃ¤ndler C oct
M:3/4
L:1/8
K:Cmaj
c' bc' |: "F"a2 ^ga "G7"df | "C"f2 eG ce | "G7"c'2 bd fb | "C"d'2c'e gc' | "F"a2 ^ga "G7"df | "C"f2 eG ce | "G7"c'2 bd fb |1 
"C"c'2 zc' bc' :|2 "C"c'2 z2z2 |: "G7"B2d2f2 | "C"e2g2c'2 | "G7"bd fb "_d"d'b | "C"c'e gc' e'c' | "G7"B2d2f2 | "C"e2g2c'2 | "G7"bd fb d'b | "C"c'2z2z2 :| 

